icons/smoking_cessation_alt_fill.svg

<svg width="48" height="48" viewBox="0 0 48 48" fill="none" xmlns="http://www.w3.org/2000/svg">
<path d="M30 23C30.5523 23 31 23.4477 31 24V28C31 28.5523 30.5523 29 30 29C29.4477 29 29 28.5523 29 28V24C29 23.4477 29.4477 23 30 23Z" fill="black"/>
<path d="M26 15.2222C26 14.5472 26.5472 14 27.2222 14C27.7745 14 28.2222 13.5523 28.2222 13C28.2222 12.4477 27.7745 12 27.2222 12C25.4426 12 24 13.4426 24 15.2222V15.8636C24 17.9975 25.7298 19.7273 27.8636 19.7273H28.7273C28.8779 19.7273 29 19.8494 29 20C29 20.5523 29.4477 21 30 21C30.5523 21 31 20.5523 31 20C31 18.7448 29.9825 17.7273 28.7273 17.7273H27.8636C26.8344 17.7273 26 16.8929 26 15.8636V15.2222Z" fill="black"/>
<path d="M28.8523 15.383C28.9035 15.8873 29.3294 16.2808 29.8472 16.2808C31.0361 16.2808 31.9999 17.2446 31.9999 18.4335V20.3252C31.9999 20.8775 32.4476 21.3252 32.9999 21.3252C33.5522 21.3252 33.9999 20.8775 33.9999 20.3252V18.4335C33.9999 17.1648 33.431 16.0289 32.5343 15.2672C33.0527 14.7058 33.3694 13.9554 33.3694 13.1311V12.1279C33.3694 10.1827 31.7924 8.60571 29.8472 8.60571C29.2949 8.60571 28.8472 9.05343 28.8472 9.60571C28.8472 10.158 29.2949 10.6057 29.8472 10.6057C30.6879 10.6057 31.3694 11.2872 31.3694 12.1279V13.1311C31.3694 13.766 30.8547 14.2807 30.2198 14.2807H29.8472C29.2949 14.2807 28.8472 14.7284 28.8472 15.2807C28.8472 15.3152 28.8489 15.3494 28.8523 15.383Z" fill="black"/>
<path d="M33 23C33.5523 23 34 23.4477 34 24V28C34 28.5523 33.5523 29 33 29C32.4477 29 32 28.5523 32 28V24C32 23.4477 32.4477 23 33 23Z" fill="black"/>
<path fill-rule="evenodd" clip-rule="evenodd" d="M24 44C35.0457 44 44 35.0457 44 24C44 12.9543 35.0457 4 24 4C12.9543 4 4 12.9543 4 24C4 35.0457 12.9543 44 24 44ZM37.4155 36.0013C40.2664 32.8166 42 28.6107 42 24C42 14.0589 33.9411 6 24 6C19.5166 6 15.4161 7.63912 12.265 10.3508L24.7071 22.7929C24.7705 22.8562 24.8235 22.926 24.8663 23H26C27.1046 23 28 23.8954 28 25V27C28 28.1046 27.1046 29 26 29H12C10.8954 29 10 28.1046 10 27V25C10 23.8954 10.8954 23 12 23H22.0858L10.8231 11.7373C7.83061 14.9515 6 19.262 6 24C6 33.9411 14.0589 42 24 42C28.6107 42 32.8166 40.2664 36.0013 37.4155L30.7929 32.2071C30.4024 31.8166 30.4024 31.1834 30.7929 30.7929C31.1834 30.4024 31.8166 30.4024 32.2071 30.7929L37.4155 36.0013Z" fill="black"/>
</svg>

<svg
  xmlns="http://www.w3.org/2000/svg"
  width="24"
  height="24"
  viewBox="0 0 24 24"
  fill="none"
  stroke="currentColor"
  stroke-width="2"
  stroke-linecap="round"
  stroke-linejoin="round"
>
  <path d="M30 23a1 1 0 0 1 1 1v4a1 1 0 1 1-2 0v-4a1 1 0 0 1 1-1" />
  <path d="M26 15.222c0-.675.547-1.222 1.222-1.222a1 1 0 1 0 0-2A3.22 3.22 0 0 0 24 15.222v.642a3.864 3.864 0 0 0 3.864 3.863h.863c.15 0 .273.122.273.273a1 1 0 1 0 2 0 2.273 2.273 0 0 0-2.273-2.273h-.863A1.864 1.864 0 0 1 26 15.864z" />
  <path d="M28.852 15.383a1 1 0 0 0 .995.898c1.19 0 2.153.964 2.153 2.153v1.891a1 1 0 1 0 2 0v-1.892a4.14 4.14 0 0 0-1.466-3.166 3.14 3.14 0 0 0 .835-2.136v-1.003a3.52 3.52 0 0 0-3.522-3.522 1 1 0 1 0 0 2c.84 0 1.522.681 1.522 1.522v1.003a1.15 1.15 0 0 1-1.15 1.15h-.372a1 1 0 0 0-.995 1.102" />
  <path d="M33 23a1 1 0 0 1 1 1v4a1 1 0 1 1-2 0v-4a1 1 0 0 1 1-1" />
  <path
    fill-rule="evenodd"
    d="M24 44c11.046 0 20-8.954 20-20S35.046 4 24 4 4 12.954 4 24s8.954 20 20 20m13.416-7.999A17.93 17.93 0 0 0 42 24c0-9.941-8.059-18-18-18a17.93 17.93 0 0 0-11.735 4.35l12.442 12.443a1 1 0 0 1 .16.207H26a2 2 0 0 1 2 2v2a2 2 0 0 1-2 2H12a2 2 0 0 1-2-2v-2a2 2 0 0 1 2-2h10.086L10.823 11.737A17.94 17.94 0 0 0 6 24c0 9.941 8.059 18 18 18 4.61 0 8.817-1.734 12.001-4.584l-5.208-5.209a1 1 0 0 1 1.414-1.414z"
    clip-rule="evenodd"
  />
</svg>
